X:636
T:Roxburgh Castle
C:Traditional English
S:Colin Hume's website,  colinhume.com  - chords can also be printed below the stave.
Q:1/2=100
M:2/2
K:G
P:A
|: (3DEF | "G"G2GB "/"dBGB | "C"c2ce "G"dBGB | "C"c2ec "G"B2dB | "Am"AGAB "D7"AcBA |\
"G"G2GB "/"dBGB | "C"c2ce "G"dBG2 | "C"gfge "D7"dcBA | "G"B2G2 G2 :|
P:B
|: (3def | "G"gdBd "D7"edBd | "G"gdBd "D7"edcB | "C"c2ac "G"B2gB | "Am"AGAB "D7"AcBA |\
"G"G2GB dBGB | "C"c2ce "G"dBG2 | "C"gfge "D7"dcBA | "G"B2G2 G2 :|

